X:1
T:Title
%%score { ( 1 3 ) | ( 2 4 ) }
L:1/8
M:6/8
K:Ab
V:1 treble nm="Grand Piano"
V:3 treble 
V:2 bass 
V:4 bass 
V:1
 z3 z2[Q:1/4=100] [CE] | [CE]2 [CE] [EA]2 B | c2 d c2 c | B2 B c2 B | [CA]3- [CA]2 [CE] | %5
 [CE]2 [CE] [EA]2 B | c2 d c2 c | B2 B c2 B |[M:5/8] G3- [Ge]2 |[M:1/8] z |[M:3/4] e3 f2 e | %11
 e4- ec | [GB]2 [GB][DGB] A[EGB] | c6 | e3 f2 e | e4- ec | [GB]2 [GB] [Ac]2 [DEB] | %17
[M:5/8] [CEA]-[CEA]- [CEA]3 |[M:1/8] z |[M:3/4] e3 f2 e | e4- ec | [GB]2 [GB][DGB] A[EGB] | c6 | %23
 e3 f2 e | e4- ec | [GB]2 [GB] [Ac]2 [DEB] |[M:5/8] [CEA]-[CEA]- [CEA]3 |] %27
V:2
 z3 z2 [A,,A,] | [A,,A,]2 [A,,A,] [C,A,]2 [E,G,E] | [A,E]2 [A,F][K:bass] [A,E]2 [A,E] | %3
 [E,G,D]2 [E,G,D] [E,G,E]2 [E,G,D] | [A,,A,]3- [A,,A,]2 [A,,A,] | %5
 [A,,A,]2 [A,,A,] [C,A,]2 [E,G,E] | [A,E]2 [A,F] [A,E]2 [A,EA] | [B,EG]2 [B,EG] [B,=DA]2 [B,DA] | %8
[M:5/8][K:bass] z z2 D2 |[M:1/8] z |[M:3/4][K:treble] [A,CA]3 [A,DA]2 [A,CA] | %11
 [A,CA]4- [A,CA][A,EA] | [E,E]2 .[E,E]2 CE, | [A,EA]6 | [A,CA]3 [A,DA]2 [A,CA] | %15
 [A,CA]4- [A,CA][A,EA] | [E,E]2 [E,E] [E,E]2 E, |[M:5/8] A,,-A,,- A,,3 |[M:1/8] z | %19
[M:3/4][K:treble] [A,CA]3 [A,DA]2 [A,CA] | [A,CA]4- [A,CA][A,EA] | [E,E]2 .[E,E]2 CE, | [A,EA]6 | %23
 [A,CA]3 [A,DA]2 [A,CA] | [A,CA]4- [A,CA][A,EA] | [E,E]2 [E,E] [E,E]2 E, |[M:5/8] A,,-A,,- A,,3 |] %27
V:3
 x6 | x6 | x6 | x6 | x6 | x6 | x6 | x6 |[M:5/8] [EB]3 z2 |[M:1/8] x |[M:3/4] x6 | x6 | x6 | x6 | %14
 x6 | x6 | x6 |[M:5/8] x5 |[M:1/8] x |[M:3/4] x6 | x6 | x6 | x6 | x6 | x6 | x6 |[M:5/8] x5 |] %27
V:4
 x6 | x6 | x3[K:bass] x3 | x6 | x6 | x6 | x6 | x6 |[M:5/8][K:bass] E,-E,- E,3 |[M:1/8] x | %10
[M:3/4][K:treble] x6 | x6 | z2 z .E,3 | x6 | x6 | x6 | x6 |[M:5/8] x5 |[M:1/8] x | %19
[M:3/4][K:treble] x6 | x6 | z2 z .E,3 | x6 | x6 | x6 | x6 |[M:5/8] x5 |] %27

